X:1
T:Title
%%score { ( 1 3 ) | ( 2 4 ) }
L:1/8
M:4/4
K:F
V:1 treble nm="Grand Piano"
V:3 treble 
V:2 bass 
V:4 bass 
V:1
 z4 z2[Q:1/4=100] FG | A2 [Ac]2 [Ac]2 [A,CF][CFA] | [CDA][DG] [DG]>[D^F] [DG]4 | z4 [=EB]4 | %4
 BAA_A =A2 FG | A2 [Ac]2 [Ac]2 [A,CF][CFA] | [CDA][B,DG] [B,DG]>[B,D^F] [B,DG]4 | %7
 [DEB][DEB][DGB][DGB] [CFA]2 G2 |[M:3/4] F6 |[M:1/4] cd |[M:4/4] c2 [EB]4 z2 | [Fd]2 c4 z2 | %12
 [Af]2 c2 dcd[Af] |[M:17/16] [Ge]-<[Ge][Fd]-<[Fd][Ec]3/2[EG][FA][GB] |[M:4/4] [FA]2 [Ac]4 z2 | %15
[M:5/4] [DF]2 [Fd]6 [DFc][DFB] |[M:4/4] [CFA]2 [CFA]2 [CEA]3 [B,EG] |[M:3/4] F6 |] %18
V:2
 z4 z2 [F,A,C][F,B,C] | [F,CF]2 [F,F]2 [F,F]2 F,F, | B,,[B,,B,] [B,,B,]>[B,,B,] [B,,B,]4 | %3
 z4 G,2 z2 | [F,CG][F,CF][F,CF][F,=B,F] [F,CF]2 [F,A,C][F,_B,C] | [F,CF]2 [F,F]2 [F,F]2 F,F, | %6
 B,,B,, B,,>B,, B,,4 | G,,G,,G,,G,, C,2 [C,B,C]2 |[M:3/4] [F,A,C]6 |[M:1/4] [F,A,F][F,A,F] | %10
[M:4/4] .[G,B,]2 z2 z4 | z2 F4 z2 | [F,C]2 [F,A,F]2 [F,B,F][F,A,F][F,B,F][F,C] | %13
[M:17/16] [G,C]-<[G,C][G,=B,]-<[G,B,][C,C]3/2[C,C][C,C][C,C] | %14
[M:4/4] [F,C]F,F,F, F,[F,CF][F,B,C][F,A,_E] |[M:5/4] [B,,B,]2 [B,,B,]6 B,,B,, | %16
[M:4/4] C,2 C,2 C,3 C, |[M:3/4] z2 B,2 A,2 |] %18
V:3
 x8 | x8 | x8 | [EB][EB][EB][_EA] z2 C2 | x8 | x8 | x8 | x8 |[M:3/4] x6 |[M:1/4] x2 | %10
[M:4/4] z B, z G, G,G,[EB][Ed] | z B, z A, A,A,cc | x8 |[M:17/16] x17/2 |[M:4/4] z CFF FAGF | %15
[M:5/4] x10 |[M:4/4] x8 |[M:3/4] A,2 D2 C2 |] %18
V:4
 x8 | x8 | x8 | [C,G,][C,G,][C,G,][C,^F,] C,4 | x8 | x8 | x8 | x8 |[M:3/4] x6 |[M:1/4] x2 | %10
[M:4/4] E-[G,E][C,G,]C, C,C,[C,G,][C,B,] | [F,B,]F,[F,A,]F, F,F,[F,A,F][F,A,F] | x8 | %13
[M:17/16] x17/2 |[M:4/4] x8 |[M:5/4] x10 |[M:4/4] x8 |[M:3/4] F,6 |] %18

